build/img/svg/od.svg

<svg width="16" height="16" viewBox="0 0 16 16" xmlns="http://www.w3.org/2000/svg">
<g clip-path="url(#clip0)">
<path d="M3.14732 8.58707C2.73865 9.3904 3.20265 9.7744 4.26132 10.4304C5.16132 10.9864 6.40465 11.1897 7.20332 11.2711C6.87598 11.5857 8.37598 10.1431 4.05598 14.2984C3.13998 15.1764 4.61465 16.5851 5.52998 15.7257L8.00798 13.3357C8.95665 14.2484 9.86598 15.1231 10.486 15.7291C11.402 16.5917 12.876 15.1951 11.97 14.3017C11.902 14.2371 8.61198 11.0811 8.81265 11.2744C9.62132 11.1931 10.846 10.9777 11.7353 10.4337L11.7347 10.4331C12.7933 9.77373 13.2573 9.3904 12.8547 8.58707C12.6113 8.13107 11.9553 7.74973 11.082 8.40907C11.082 8.40907 9.90265 9.3124 8.00065 9.3124C6.09798 9.3124 4.91932 8.40907 4.91932 8.40907C4.04665 7.7464 3.38798 8.13107 3.14732 8.58707Z"/>
<path d="M7.99929 8.09467C10.318 8.09467 12.2113 6.28267 12.2113 4.052C12.2113 1.812 10.318 0 7.99929 0C5.67995 0 3.78662 1.812 3.78662 4.052C3.78662 6.28267 5.67995 8.09467 7.99929 8.09467ZM7.99929 2.05267C9.13862 2.05267 10.068 2.94667 10.068 4.052C10.068 5.148 9.13862 6.042 7.99929 6.042C6.85995 6.042 5.93062 5.148 5.93062 4.052C5.92995 2.946 6.85929 2.05267 7.99929 2.05267Z"/>
</g>
<defs>
<clipPath id="clip0">
<rect width="16" height="16" fill="white"/>
</clipPath>
</defs>
</svg>

<svg width="16" height="16" xmlns="http://www.w3.org/2000/svg"><g clip-path="url(#clip0)"><path d="M3.147 8.587c-.408.803.056 1.187 1.114 1.843.9.556 2.144.76 2.942.841l-3.147 3.027c-.916.878.559 2.287 1.474 1.428l2.478-2.39c.949.912 1.858 1.787 2.478 2.393.916.863 2.39-.534 1.484-1.427l-3.157-3.028c.808-.08 2.033-.296 2.922-.84 1.058-.66 1.522-1.044 1.12-1.847-.244-.456-.9-.837-1.773-.178 0 0-1.18.903-3.081.903-1.903 0-3.082-.903-3.082-.903-.872-.663-1.531-.278-1.772.178z"/><path d="M8 8.095c2.318 0 4.211-1.812 4.211-4.043C12.211 1.812 10.318 0 8 0S3.787 1.812 3.787 4.052c0 2.23 1.893 4.043 4.212 4.043zm0-6.042c1.139 0 2.068.894 2.068 1.999 0 1.096-.93 1.99-2.069 1.99-1.139 0-2.068-.894-2.068-1.99-.001-1.106.928-2 2.068-2z"/></g><defs><clipPath id="clip0"><path fill="#fff" d="M0 0h16v16H0z"/></clipPath></defs></svg>
